src/assests/about-svg.svg

<svg xmlns="http://www.w3.org/2000/svg" width="1200" height="450"><path fill="#080c21" d="M0 24h52v-9h52v4h53v-4h52v-5h52v9h52v-4h52v13h52v-9h157v5h104v-5h52v5h53v-5h52v9h52v-4h52v4h52v-9h52v-4h53v-5h52v9h52V0H0Z"/><path fill="#0d162d" d="M0 33h52v4h52v-4h105v-5h52v9h52v5h104v4h53V28h52v14h52v-5h104v-9h52v18h53V33h52v9h52v-5h104v-4h52v-5h53v-4h52v18h52V17h-52V8h-52v5h-53v4h-52v9h-52v-4h-52v4h-52v-9h-52v5h-53v-5h-52v5H574v-5H417v9h-52V13h-52v4h-52V8h-52v5h-52v4h-53v-4H52v9H0Z"/><path fill="#121e39" d="M0 69h52v22h52V51h53v18h52V51h52v13h52v18h104V60h53v18h52V60h104v31h52V78h52v9h53V51h52v13h52v14h52v-5h52v5h52V55h53v18h52V60h52v9-38 9h-52V22h-52v4h-53v5h-52v4H887v5h-52v-9h-52v13h-53V26h-52v9H574v5h-52V26h-52v18h-53v-4H313v-5h-52v-9h-52v5H104v4H52v-4H0Z"/><path fill="#162645" d="M0 100h52v5h52V82h53v18h52V73h52v5h52v18h157v-5h52V78h52v18h52v9h52v13h52v-13h53V87h52v-9h52v36h52V87h52v22h52V82h53v14h104V58h-52v13h-52V53h-53v23h-52v-5h-52v5h-52V62h-52V49h-52v36h-53v-9h-52v13h-52V58H522v18h-52V58h-53v22H313V62h-52V49h-52v18h-52V49h-53v40H52V67H0Z"/><path fill="#1a2f53" d="M0 118h52v9h52v-22h53v9h52v4h52v-13h52v27h52v4h52v-9h53v-13h52v9h52v-14h52v14h52v22h52v-4h53v-32h52V91h52v36h52v-22h52v45h52v-45h53v13h52v18h52V80v14h-104V80h-53v27h-52V85h-52v27h-52V76h-52v9h-52v18h-53v13h-52v-13h-52v-9h-52V76h-52v13h-52v5H313V76h-52v-5h-52v27h-52V80h-53v23H52v-5H0Z"/><path fill="#1d3760" d="M0 222h52v-14h52v-4h53v-14h52v36h52v-31h52v45h52v-50h52v72h53v-9h52v-49h52v-32h52v72h52v-27h52v-27h53v-18h52v27h104v-9h52v54h52v-36h53v14h52v40h52V94v40h-52v-18h-52v-13h-53v45h-52v-45h-52v22h-52V89h-52v18h-52v32h-53v4h-52v-22h-52v-14h-52v14h-52v-9h-52v13h-53v9h-52v-4h-52v-27h-52v13h-52v-4h-52v-9h-53v22H52v-9H0Z"/><path fill="#1f416e" d="M0 240h52v-18h52v9h53v-14h52v27h52v-18h52v36h52v-54h52v81h53v-9h52v-54h52v-22h52v72h52v-45h52v-32h53v9h52v18h52v-9h52v-9h52v59h52v-32h53v18h52v18h52v-69 58h-52v-40h-52v-14h-53v36h-52v-54h-52v9H835v-27h-52v18h-53v27h-52v27h-52v-72h-52v32h-52v49h-52v9h-53v-72h-52v50h-52v-45h-52v31h-52v-36h-52v14h-53v4H52v14H0Z"/><path fill="#214a7c" d="M0 271h52v-22h52v-9h53v4h52v18h52v-13h52v31h52v-58h52v90h53v-14h52v-54h52v-18h52v59h52v-27h52v-36h53v18h52v-5h52v-4h52v9h52v58h52v-31h53v-5h52v36h52v-74 45h-52v-18h-52v-18h-53v32h-52v-59h-52v9h-52v9h-52v-18h-52v-9h-53v32h-52v45h-52v-72h-52v22h-52v54h-52v9h-53v-81h-52v54h-52v-36h-52v18h-52v-27h-52v14h-53v-9H52v18H0Z"/><path fill="#22538b" d="M0 316h52v-4h52v-36h53v18h52v-5h52v-13h52v40h52v-13h52v40h53v-18h52v-49h52v-18h52v108h52v-32h52v-54h53v9h52v-18h52v14h52v-9h52v85h52v-22h105v18h52V256v40h-52v-36h-52v5h-53v31h-52v-58h-52v-9h-52v4h-52v5h-52v-18h-53v36h-52v27h-52v-59h-52v18h-52v54h-52v14h-53v-90h-52v58h-52v-31h-52v13h-52v-18h-52v-4h-53v9H52v22H0Z"/><path fill="#225d9a" d="M0 361h52v-4h52v-27h53v-14h52v14h52v-9h52v13h52v9h52v41h53v-9h52v-54h52v-18h52v99h52v-45h52v-27h53v-23h52v5h52v18h52v4h52v68h52v-5h53v-18h104v-51 27h-52v-18h-105v22h-52v-85h-52v9h-52v-14h-52v18h-52v-9h-53v54h-52v32h-52V256h-52v18h-52v49h-52v18h-53v-40h-52v13h-52v-40h-52v13h-52v5h-52v-18h-53v36H52v4H0Z"/><path fill="#2067a9" d="M0 429h52v9h52v-5h53v-4h104v4h52v5h104v4h53v-13h52v4h52v9h104v-9h52v5h53v4h52v-13h52v13h104v-13h52v13h53v-4h52v-9h52v4-65 9h-104v18h-53v5h-52v-68h-52v-4h-52v-18h-52v-5h-52v23h-53v27h-52v45h-52v-99h-52v18h-52v54h-52v9h-53v-41h-52v-9h-52v-13h-52v9h-52v-14h-52v14h-53v27H52v4H0Z"/><path fill="#1d71b8" d="M0 451h1200v-24h-52v9h-52v4h-53v-13h-52v13H887v-13h-52v13h-52v-4h-53v-5h-52v9H574v-9h-52v-4h-52v13h-53v-4H313v-5h-52v-4H157v4h-53v5H52v-9H0Z"/></svg>

<svg id="visual" viewBox="0 0 1200 450" width="1200" height="450" xmlns="http://www.w3.org/2000/svg" xmlns:xlink="http://www.w3.org/1999/xlink" version="1.1"><path d="M0 24L52 24L52 15L104 15L104 19L157 19L157 15L209 15L209 10L261 10L261 19L313 19L313 15L365 15L365 28L417 28L417 19L470 19L470 19L522 19L522 19L574 19L574 24L626 24L626 24L678 24L678 19L730 19L730 24L783 24L783 19L835 19L835 28L887 28L887 24L939 24L939 28L991 28L991 19L1043 19L1043 15L1096 15L1096 10L1148 10L1148 19L1200 19L1200 19L1200 0L1200 0L1148 0L1148 0L1096 0L1096 0L1043 0L1043 0L991 0L991 0L939 0L939 0L887 0L887 0L835 0L835 0L783 0L783 0L730 0L730 0L678 0L678 0L626 0L626 0L574 0L574 0L522 0L522 0L470 0L470 0L417 0L417 0L365 0L365 0L313 0L313 0L261 0L261 0L209 0L209 0L157 0L157 0L104 0L104 0L52 0L52 0L0 0Z" fill="#080c21"></path><path d="M0 33L52 33L52 37L104 37L104 33L157 33L157 33L209 33L209 28L261 28L261 37L313 37L313 42L365 42L365 42L417 42L417 46L470 46L470 28L522 28L522 42L574 42L574 37L626 37L626 37L678 37L678 28L730 28L730 46L783 46L783 33L835 33L835 42L887 42L887 37L939 37L939 37L991 37L991 33L1043 33L1043 28L1096 28L1096 24L1148 24L1148 42L1200 42L1200 33L1200 17L1200 17L1148 17L1148 8L1096 8L1096 13L1043 13L1043 17L991 17L991 26L939 26L939 22L887 22L887 26L835 26L835 17L783 17L783 22L730 22L730 17L678 17L678 22L626 22L626 22L574 22L574 17L522 17L522 17L470 17L470 17L417 17L417 26L365 26L365 13L313 13L313 17L261 17L261 8L209 8L209 13L157 13L157 17L104 17L104 13L52 13L52 22L0 22Z" fill="#0d162d"></path><path d="M0 69L52 69L52 91L104 91L104 51L157 51L157 69L209 69L209 51L261 51L261 64L313 64L313 82L365 82L365 82L417 82L417 60L470 60L470 78L522 78L522 60L574 60L574 60L626 60L626 91L678 91L678 78L730 78L730 87L783 87L783 51L835 51L835 64L887 64L887 78L939 78L939 73L991 73L991 78L1043 78L1043 55L1096 55L1096 73L1148 73L1148 60L1200 60L1200 69L1200 31L1200 40L1148 40L1148 22L1096 22L1096 26L1043 26L1043 31L991 31L991 35L939 35L939 35L887 35L887 40L835 40L835 31L783 31L783 44L730 44L730 26L678 26L678 35L626 35L626 35L574 35L574 40L522 40L522 26L470 26L470 44L417 44L417 40L365 40L365 40L313 40L313 35L261 35L261 26L209 26L209 31L157 31L157 31L104 31L104 35L52 35L52 31L0 31Z" fill="#121e39"></path><path d="M0 100L52 100L52 105L104 105L104 82L157 82L157 100L209 100L209 73L261 73L261 78L313 78L313 96L365 96L365 96L417 96L417 96L470 96L470 91L522 91L522 78L574 78L574 96L626 96L626 105L678 105L678 118L730 118L730 105L783 105L783 87L835 87L835 78L887 78L887 114L939 114L939 87L991 87L991 109L1043 109L1043 82L1096 82L1096 96L1148 96L1148 96L1200 96L1200 82L1200 67L1200 58L1148 58L1148 71L1096 71L1096 53L1043 53L1043 76L991 76L991 71L939 71L939 76L887 76L887 62L835 62L835 49L783 49L783 85L730 85L730 76L678 76L678 89L626 89L626 58L574 58L574 58L522 58L522 76L470 76L470 58L417 58L417 80L365 80L365 80L313 80L313 62L261 62L261 49L209 49L209 67L157 67L157 49L104 49L104 89L52 89L52 67L0 67Z" fill="#162645"></path><path d="M0 118L52 118L52 127L104 127L104 105L157 105L157 114L209 114L209 118L261 118L261 105L313 105L313 132L365 132L365 136L417 136L417 127L470 127L470 114L522 114L522 123L574 123L574 109L626 109L626 123L678 123L678 145L730 145L730 141L783 141L783 109L835 109L835 91L887 91L887 127L939 127L939 105L991 105L991 150L1043 150L1043 105L1096 105L1096 118L1148 118L1148 136L1200 136L1200 96L1200 80L1200 94L1148 94L1148 94L1096 94L1096 80L1043 80L1043 107L991 107L991 85L939 85L939 112L887 112L887 76L835 76L835 85L783 85L783 103L730 103L730 116L678 116L678 103L626 103L626 94L574 94L574 76L522 76L522 89L470 89L470 94L417 94L417 94L365 94L365 94L313 94L313 76L261 76L261 71L209 71L209 98L157 98L157 80L104 80L104 103L52 103L52 98L0 98Z" fill="#1a2f53"></path><path d="M0 222L52 222L52 208L104 208L104 204L157 204L157 190L209 190L209 226L261 226L261 195L313 195L313 240L365 240L365 190L417 190L417 262L470 262L470 253L522 253L522 204L574 204L574 172L626 172L626 244L678 244L678 217L730 217L730 190L783 190L783 172L835 172L835 199L887 199L887 199L939 199L939 190L991 190L991 244L1043 244L1043 208L1096 208L1096 222L1148 222L1148 262L1200 262L1200 204L1200 94L1200 134L1148 134L1148 116L1096 116L1096 103L1043 103L1043 148L991 148L991 103L939 103L939 125L887 125L887 89L835 89L835 107L783 107L783 139L730 139L730 143L678 143L678 121L626 121L626 107L574 107L574 121L522 121L522 112L470 112L470 125L417 125L417 134L365 134L365 130L313 130L313 103L261 103L261 116L209 116L209 112L157 112L157 103L104 103L104 125L52 125L52 116L0 116Z" fill="#1d3760"></path><path d="M0 240L52 240L52 222L104 222L104 231L157 231L157 217L209 217L209 244L261 244L261 226L313 226L313 262L365 262L365 208L417 208L417 289L470 289L470 280L522 280L522 226L574 226L574 204L626 204L626 276L678 276L678 231L730 231L730 199L783 199L783 208L835 208L835 226L887 226L887 217L939 217L939 208L991 208L991 267L1043 267L1043 235L1096 235L1096 253L1148 253L1148 271L1200 271L1200 226L1200 202L1200 260L1148 260L1148 220L1096 220L1096 206L1043 206L1043 242L991 242L991 188L939 188L939 197L887 197L887 197L835 197L835 170L783 170L783 188L730 188L730 215L678 215L678 242L626 242L626 170L574 170L574 202L522 202L522 251L470 251L470 260L417 260L417 188L365 188L365 238L313 238L313 193L261 193L261 224L209 224L209 188L157 188L157 202L104 202L104 206L52 206L52 220L0 220Z" fill="#1f416e"></path><path d="M0 271L52 271L52 249L104 249L104 240L157 240L157 244L209 244L209 262L261 262L261 249L313 249L313 280L365 280L365 222L417 222L417 312L470 312L470 298L522 298L522 244L574 244L574 226L626 226L626 285L678 285L678 258L730 258L730 222L783 222L783 240L835 240L835 235L887 235L887 231L939 231L939 240L991 240L991 298L1043 298L1043 267L1096 267L1096 262L1148 262L1148 298L1200 298L1200 258L1200 224L1200 269L1148 269L1148 251L1096 251L1096 233L1043 233L1043 265L991 265L991 206L939 206L939 215L887 215L887 224L835 224L835 206L783 206L783 197L730 197L730 229L678 229L678 274L626 274L626 202L574 202L574 224L522 224L522 278L470 278L470 287L417 287L417 206L365 206L365 260L313 260L313 224L261 224L261 242L209 242L209 215L157 215L157 229L104 229L104 220L52 220L52 238L0 238Z" fill="#214a7c"></path><path d="M0 316L52 316L52 312L104 312L104 276L157 276L157 294L209 294L209 289L261 289L261 276L313 276L313 316L365 316L365 303L417 303L417 343L470 343L470 325L522 325L522 276L574 276L574 258L626 258L626 366L678 366L678 334L730 334L730 280L783 280L783 289L835 289L835 271L887 271L887 285L939 285L939 276L991 276L991 361L1043 361L1043 339L1096 339L1096 339L1148 339L1148 357L1200 357L1200 330L1200 256L1200 296L1148 296L1148 260L1096 260L1096 265L1043 265L1043 296L991 296L991 238L939 238L939 229L887 229L887 233L835 233L835 238L783 238L783 220L730 220L730 256L678 256L678 283L626 283L626 224L574 224L574 242L522 242L522 296L470 296L470 310L417 310L417 220L365 220L365 278L313 278L313 247L261 247L261 260L209 260L209 242L157 242L157 238L104 238L104 247L52 247L52 269L0 269Z" fill="#22538b"></path><path d="M0 361L52 361L52 357L104 357L104 330L157 330L157 316L209 316L209 330L261 330L261 321L313 321L313 334L365 334L365 343L417 343L417 384L470 384L470 375L522 375L522 321L574 321L574 303L626 303L626 402L678 402L678 357L730 357L730 330L783 330L783 307L835 307L835 312L887 312L887 330L939 330L939 334L991 334L991 402L1043 402L1043 397L1096 397L1096 379L1148 379L1148 379L1200 379L1200 370L1200 328L1200 355L1148 355L1148 337L1096 337L1096 337L1043 337L1043 359L991 359L991 274L939 274L939 283L887 283L887 269L835 269L835 287L783 287L783 278L730 278L730 332L678 332L678 364L626 364L626 256L574 256L574 274L522 274L522 323L470 323L470 341L417 341L417 301L365 301L365 314L313 314L313 274L261 274L261 287L209 287L209 292L157 292L157 274L104 274L104 310L52 310L52 314L0 314Z" fill="#225d9a"></path><path d="M0 429L52 429L52 438L104 438L104 433L157 433L157 429L209 429L209 429L261 429L261 433L313 433L313 438L365 438L365 438L417 438L417 442L470 442L470 429L522 429L522 433L574 433L574 442L626 442L626 442L678 442L678 433L730 433L730 438L783 438L783 442L835 442L835 429L887 429L887 442L939 442L939 442L991 442L991 429L1043 429L1043 442L1096 442L1096 438L1148 438L1148 429L1200 429L1200 433L1200 368L1200 377L1148 377L1148 377L1096 377L1096 395L1043 395L1043 400L991 400L991 332L939 332L939 328L887 328L887 310L835 310L835 305L783 305L783 328L730 328L730 355L678 355L678 400L626 400L626 301L574 301L574 319L522 319L522 373L470 373L470 382L417 382L417 341L365 341L365 332L313 332L313 319L261 319L261 328L209 328L209 314L157 314L157 328L104 328L104 355L52 355L52 359L0 359Z" fill="#2067a9"></path><path d="M0 451L52 451L52 451L104 451L104 451L157 451L157 451L209 451L209 451L261 451L261 451L313 451L313 451L365 451L365 451L417 451L417 451L470 451L470 451L522 451L522 451L574 451L574 451L626 451L626 451L678 451L678 451L730 451L730 451L783 451L783 451L835 451L835 451L887 451L887 451L939 451L939 451L991 451L991 451L1043 451L1043 451L1096 451L1096 451L1148 451L1148 451L1200 451L1200 451L1200 431L1200 427L1148 427L1148 436L1096 436L1096 440L1043 440L1043 427L991 427L991 440L939 440L939 440L887 440L887 427L835 427L835 440L783 440L783 436L730 436L730 431L678 431L678 440L626 440L626 440L574 440L574 431L522 431L522 427L470 427L470 440L417 440L417 436L365 436L365 436L313 436L313 431L261 431L261 427L209 427L209 427L157 427L157 431L104 431L104 436L52 436L52 427L0 427Z" fill="#1d71b8"></path></svg>
